frontend/src/images/background-promo.svg

<svg width="1280" height="524" fill="none" xmlns="http://www.w3.org/2000/svg"><path fill="#073042" d="M0 0h1280v524H0z"/><path opacity=".2" fill-rule="evenodd" clip-rule="evenodd" d="M768.996 241.628c0 3.732-.128 7.433-.38 11.101V402H449.379V252.709a161.985 161.985 0 0 1 0-22.162V82.379h148.506a162.689 162.689 0 0 1 22.226 0h148.505v148.149c.252 3.668.38 7.369.38 11.1zm-1.88-78.124v53.572a158.292 158.292 0 0 0-18.559-53.572h18.559zm0 67.077a156.925 156.925 0 0 0-20.283-67.077h-57.367v77.746h77.65v-10.669zm0-68.956h-19.634c-13.956-23.994-33.997-44.027-58.015-57.998V83.879h77.649v77.746zm-21.372 0a159.106 159.106 0 0 0-56.277-56.259v56.259h56.277zm-58.157-77.746v18.672a159.173 159.173 0 0 0-53.963-18.672h53.963zm0 20.397c-20.152-11.501-43.077-18.715-67.528-20.397h-10.122v77.746h77.65v-57.349zM530.408 83.879h53.965a159.167 159.167 0 0 0-53.965 18.673V83.879zm67.529 0c-24.451 1.682-47.377 8.896-67.529 20.397v57.349h77.65V83.879h-10.121zm-69.409 0v19.749c-24.017 13.971-44.058 34.004-58.013 57.997h-19.636V83.879h77.649zm0 21.488a159.098 159.098 0 0 0-56.275 56.258h56.275v-56.258zm-77.649 58.137h18.56a158.312 158.312 0 0 0-18.56 53.581v-53.581zm0 79.625v9.528a156.937 156.937 0 0 0 20.931 68.218h56.719v-77.746h-77.65zm0 77.746v-54.703a158.326 158.326 0 0 0 19.198 54.703h-19.198zm0 1.879h20.294a160.623 160.623 0 0 0 57.356 56.875V400.5h-77.65v-77.746zm79.529 77.746v-19.795a159.238 159.238 0 0 0 62.911 19.795h-62.911zm0-21.52c22.91 13.076 49.404 20.61 77.65 20.774v-77h-77.65v56.226zm157.179 21.52h-62.909a159.249 159.249 0 0 0 62.909-19.794V400.5zm-77.649-.746c28.245-.163 54.74-7.698 77.649-20.773v-56.227h-77.649v77zm79.528.746v-20.871a160.61 160.61 0 0 0 57.357-56.875h20.293V400.5h-77.65zm0-22.609a159.12 159.12 0 0 0 55.61-55.137h-55.61v55.137zm0-57.016h56.72a156.913 156.913 0 0 0 20.93-68.199v-9.547h-77.65v77.746zm77.65-54.695a158.324 158.324 0 0 1-19.197 54.695h19.197V266.18zM472.92 322.754a159.105 159.105 0 0 0 55.609 55.136v-55.136H472.92zm-1.756-159.25a156.903 156.903 0 0 0-20.285 67.096v10.65h77.65v-77.746h-57.365zm59.244 0h77.65v5.119H548.081v72.627h-17.673v-77.746zm17.673 79.625h-17.673v77.746h77.65v-77.746h-34.031v72.059h-25.946v-72.059zm25.946-1.879h34.031v-46.696h-34.031v46.696zm35.911-72.627H673.3v72.627h14.287v-77.746h-77.649v5.119zm63.362 74.506h14.287v77.746h-77.649v-77.746h37.415v72.059H673.3v-72.059zm-25.947-1.879v-46.696h-37.415v46.696h37.415z" fill="#fff"/></svg>

<svg width="1280" height="524" viewBox="0 0 1280 524" fill="none" xmlns="http://www.w3.org/2000/svg">
<rect width="1280" height="524" fill="#073042"/>
<path opacity="0.2" fill-rule="evenodd" clip-rule="evenodd" d="M768.996 241.628C768.996 245.36 768.868 249.061 768.616 252.729V320.875V321.254V322.375V322.754V400.5V402H767.116H689.466H689.087H687.966H687.587H609.938H609.558H608.438H608.058H530.408H530.029H528.908H528.529H450.879H449.379V400.5V322.754V322.375V321.254V320.875V252.709C449.128 249.048 449 245.353 449 241.628C449 237.904 449.128 234.209 449.379 230.547V163.504V163.125H449.379V161.625V83.8786V82.3786H450.879H528.528H530.028V82.3791H530.408H597.885C601.557 82.1277 605.263 82 608.998 82C612.734 82 616.44 82.1277 620.111 82.3791H687.587H687.967H689.087H689.467H767.116H768.616V83.8791V161.625V163.125L768.616 163.504V230.528C768.868 234.196 768.996 237.897 768.996 241.628ZM767.116 163.504V217.076C764.145 197.875 757.744 179.803 748.557 163.504H767.116ZM767.116 230.581C765.436 206.305 758.265 183.537 746.833 163.504H689.466V241.25H767.116V230.581ZM767.116 161.625H747.482C733.526 137.631 713.485 117.598 689.467 103.627V83.8791H767.116V161.625ZM745.744 161.625C732.087 138.441 712.675 119.037 689.467 105.366V161.625H745.744ZM687.587 83.8791V102.551C671.18 93.3031 652.974 86.8614 633.624 83.8791H687.587ZM687.587 104.276C667.435 92.7747 644.51 85.5606 620.059 83.8791H609.937V161.625H687.587V104.276ZM530.408 83.8791H584.373C565.022 86.8615 546.815 93.3035 530.408 102.552V83.8791ZM597.937 83.8791C573.486 85.5607 550.56 92.775 530.408 104.276V161.625H608.058V83.8791H597.937ZM528.528 83.8786V103.628C504.511 117.599 484.47 137.632 470.515 161.625H450.879V83.8786H528.528ZM528.528 105.367C505.321 119.037 485.91 138.441 472.253 161.625H528.528V105.367ZM450.879 163.504H469.439C460.251 179.806 453.85 197.88 450.879 217.085V163.504ZM450.879 243.129V252.657C452.588 277.394 459.999 300.566 471.81 320.875H528.529V243.129H450.879ZM450.879 320.875V266.172C453.918 285.818 460.547 304.282 470.077 320.875H450.879ZM450.879 322.754H471.173C485.098 346.25 504.886 365.876 528.529 379.629V400.5H450.879V322.754ZM530.408 400.5V380.705C549.321 391.366 570.626 398.298 593.319 400.5H530.408ZM530.408 378.98C553.318 392.056 579.812 399.59 608.058 399.754V322.754H530.408V378.98ZM687.587 400.5H624.678C647.37 398.298 668.674 391.366 687.587 380.706V400.5ZM609.938 399.754C638.183 399.591 664.678 392.056 687.587 378.981V322.754H609.938V399.754ZM689.466 400.5V379.629C713.109 365.877 732.899 346.25 746.823 322.754H767.116V400.5H689.466ZM689.466 377.891C712.299 364.441 731.457 345.442 745.076 322.754H689.466V377.891ZM689.466 320.875H746.186C757.995 300.572 765.405 277.406 767.116 252.676V243.129H689.466V320.875ZM767.116 266.18C764.076 285.824 757.448 304.284 747.919 320.875H767.116V266.18ZM472.92 322.754C486.539 345.442 505.696 364.441 528.529 377.89V322.754H472.92ZM471.164 163.504C459.728 183.542 452.556 206.317 450.879 230.6V241.25H528.529V163.504H471.164ZM530.408 163.504H608.058V168.623H574.027H568.387H548.081V241.25H530.408V163.504ZM548.081 243.129H530.408V320.875H608.058V243.129H574.027V315.188H548.081V243.129ZM574.027 241.25H608.058V194.554H574.027V241.25ZM609.938 168.623H647.353H652.994H673.3V241.25H687.587V163.504H609.938V168.623ZM673.3 243.129H687.587V320.875H609.938V243.129H647.353V315.188H673.3V243.129ZM647.353 241.25V194.554H609.938V241.25H647.353Z" fill="white"/>
</svg>
